X:3026
T:Chestnut
T:Dove's Figary
R:March
C:Trad., Playford 1651
O:England
Z:Paul Hardy's Session Tunebook 2015 (see www.paulhardy.net). Creative Commons cc by-nc-sa licenced.
M:2/2
L:1/8
Q:1/2=75
K:Am
|:"Am"A2e2d2c2|"E"B3A ^G2E2|"Am"A2B2 c2c2|"Dm"d2cd "E7"e4:|
|:"C"e2ef g2fe|"G7"d2de f2ed|"C"e2e2 "Am"e2dc|"G7"d3c "C"c4|
|"C"e2fe "F"fedc|"Dm"d2ed "E7"edcB|"Am"c2A2 "Dm"A2d2|"E7"B3c "Am"A4:|

